static/images/mobile/copyright/wikipedia-wordmark-diq.svg

<svg width="120" height="18" viewBox="0 0 120 18" fill="none" xmlns="http://www.w3.org/2000/svg">
<path fill-rule="evenodd" clip-rule="evenodd" d="M109.143 9.53477C108.584 9.53477 108.406 9.45851 108.507 9.20424L111.05 2.74602H111.101L113.567 9.53477H109.143ZM106.321 14.7217L107.795 11.0349C107.923 10.7044 108.075 10.6027 108.685 10.6027H113.974L115.525 14.8997C115.779 15.6116 115.423 15.9167 114.457 15.993L113.745 16.0439C113.618 16.0439 113.567 16.1201 113.567 16.2473V16.7304L113.593 16.7812C113.593 16.7812 116.084 16.7304 116.974 16.7304C117.966 16.7304 119.924 16.7812 119.924 16.7812L120 16.7304V16.2473C120 16.1201 119.873 16.0439 119.746 16.0439L119.466 16.0184C118.449 15.9167 117.94 15.5353 117.585 14.5437L112.372 0.762787C112.169 0.254257 112.042 0 111.686 0C111.304 0 111.101 0.254257 110.821 0.915344L105.177 14.1369C104.465 15.7642 103.829 15.9676 102.71 16.0439C102.583 16.0439 102.507 16.1201 102.507 16.2473V16.7304L102.558 16.7812C102.558 16.7812 104.185 16.7304 104.846 16.7304C105.456 16.7304 108.228 16.7812 108.228 16.7812L108.279 16.7304V16.2473C108.279 16.1201 108.177 16.0439 108.075 16.0439L107.338 15.993C106.397 15.9167 106.067 15.3574 106.321 14.7217ZM14.6462 1.08955C15.7395 1.24211 15.6124 1.80148 14.8496 3.27618L13.502 5.8188L13.3749 5.69167L12.129 3.12364C11.4425 1.67435 11.3408 1.24211 12.4087 1.08955C12.5613 0.936996 12.5613 0.403046 12.4087 0.250488C12.1597 0.257401 11.9484 0.264313 11.7526 0.270721L11.7518 0.270767L11.7492 0.270859L11.7472 0.270905C11.226 0.287918 10.8143 0.301346 10.0949 0.301346C9.30706 0.301346 8.87014 0.286087 8.33498 0.26738L8.32509 0.267014L8.31147 0.266556C8.20969 0.263 8.10418 0.259338 7.99186 0.25563L7.83202 0.250488C7.67948 0.403046 7.7049 0.936996 7.85746 1.08955C8.95078 1.24211 9.15418 1.59807 9.99325 3.40332L12.129 7.95459L9.30674 13.7263H9.17962L4.52663 3.12364C3.89098 1.67435 3.96726 1.26753 5.56911 1.08955C5.72167 0.936996 5.72167 0.403046 5.56911 0.250488C5.22887 0.257721 4.93398 0.264969 4.66332 0.271606L4.65665 0.27179C3.97983 0.288422 3.45379 0.301346 2.74682 0.301346C2.06968 0.301346 1.65177 0.29007 1.09536 0.27504L1.09348 0.274994L1.09206 0.274948L1.09083 0.274902L0.903691 0.269882L0.717931 0.264999C0.534673 0.260284 0.332738 0.255386 0.102498 0.250488C-0.0500593 0.403046 -0.0246382 0.936996 0.127919 1.08955C1.47269 1.2075 1.61347 1.54437 2.23613 3.03453L2.3207 3.23665L2.39084 3.40332L7.93374 16.4215C8.08629 16.8029 8.26427 17.0063 8.51853 17.0063C8.79822 17.0063 8.9762 16.8029 9.12876 16.4215L12.8664 9.04791L16.2989 16.4215C16.426 16.8029 16.6295 17.0063 16.8837 17.0063C17.1634 17.0063 17.316 16.8029 17.4939 16.4215L23.4945 3.45418C23.5255 3.38617 23.5558 3.31876 23.5856 3.25208L23.6186 3.17819C24.0858 2.1315 24.4673 1.27673 26.0117 1.08955C26.1642 0.936996 26.1642 0.403046 26.0117 0.250488L25.7193 0.258041C25.5212 0.263321 25.3384 0.268494 25.168 0.273331L25.1658 0.273376L25.1647 0.273422C24.6048 0.289261 24.1774 0.301346 23.7742 0.301346C23.3889 0.301346 22.9374 0.290314 22.3326 0.275513L22.331 0.275467C22.0181 0.267822 21.6641 0.259155 21.257 0.250488C21.1045 0.403046 21.1045 0.936996 21.257 1.08955C22.9097 1.21667 22.9351 1.90318 22.3503 3.27618L17.5194 13.7263H17.3922L14.1377 7.01382L15.9938 3.45418C16.6294 2.28458 17.1888 1.29295 18.511 1.08955C18.6635 0.936996 18.6635 0.403046 18.511 0.250488L18.5098 0.250534C17.8745 0.27594 17.2393 0.301346 16.6549 0.301346C16.271 0.301346 15.9311 0.290375 15.4767 0.275696L15.4753 0.27565L15.4711 0.275513L15.4703 0.275467L15.4695 0.275421L15.4671 0.27533L15.4621 0.275146L15.3069 0.270157C15.1118 0.263931 14.895 0.257202 14.6462 0.250488C14.4937 0.403046 14.4937 0.936996 14.6462 1.08955ZM29.971 6.55992C29.971 6.05139 30.2506 5.82257 31.0388 5.74629L31.5728 5.69543C31.6745 5.69543 31.7253 5.64459 31.7253 5.56831V5.03436L31.6999 4.98351C31.6999 4.98351 29.7421 5.03436 29.0556 5.03436C28.2674 5.03436 26.2587 4.98351 26.2587 4.98351L26.2333 5.03436V5.59373C26.2333 5.67001 26.3096 5.69543 26.4113 5.69543L26.9198 5.74629C27.708 5.82257 28.0131 6.00055 28.0131 6.55992V15.0268C28.0131 15.5099 27.7589 15.9167 26.9198 15.993L26.4113 16.0439C26.3096 16.0439 26.2333 16.0947 26.2333 16.1964V16.7304L26.2842 16.7812C26.2842 16.7812 28.2674 16.7304 28.9793 16.7304C29.7675 16.7304 31.6999 16.7812 31.6999 16.7812L31.7253 16.7304V16.1964C31.7253 16.0947 31.6491 16.0439 31.5728 16.0439L31.0388 15.993C30.2252 15.9167 29.971 15.5862 29.971 15.0268V6.55992ZM37.8549 11.8994C37.4735 11.3909 37.0667 11.2637 36.5073 11.2637V15.0268C36.5073 15.5862 36.8379 15.8659 37.5752 15.993L37.8549 16.0439C37.9312 16.0693 38.0075 16.0947 38.0075 16.1964V16.7304L37.982 16.7812C37.982 16.7812 36.3802 16.7304 35.6174 16.7304C34.9055 16.7304 32.8206 16.7812 32.8206 16.7812L32.7697 16.7304V16.1964C32.7697 16.0947 32.846 16.0439 32.9477 16.0439L33.4562 15.993C34.219 15.9167 34.5495 15.5099 34.5495 15.0268V6.55992C34.5495 6.00055 34.2698 5.84799 33.4562 5.77171L32.9477 5.72086C32.846 5.72086 32.7697 5.69543 32.7697 5.61916V5.03436L32.7951 4.98351C32.7951 4.98351 34.8801 5.03436 35.6683 5.03436C36.3802 5.03436 37.982 4.98351 37.982 4.98351L38.0075 5.03436V5.59373C38.0075 5.67001 37.9566 5.69543 37.8549 5.72086L37.5752 5.77171C36.787 5.92427 36.5073 6.05139 36.5073 6.55992V10.3993C37.3464 10.3993 37.8295 9.96703 38.9482 8.77199C39.9653 7.65324 40.7535 6.71248 40.7535 6.22939C40.7535 6.02597 40.5246 5.79713 40.0161 5.72086C39.9144 5.69543 39.8636 5.67001 39.8636 5.59373V5.00893L39.889 4.98351C39.889 4.98351 41.9485 5.03436 42.6859 5.03436C43.3469 5.03436 44.4657 4.98351 44.4657 4.98351L44.542 5.00893V5.59373C44.542 5.67001 44.4657 5.72086 44.3386 5.72086L44.3326 5.72131C43.3442 5.79735 42.6586 5.85007 41.7451 6.89046L39.5585 9.40764C39.1262 9.86531 38.9737 10.145 38.9737 10.3484C38.9737 10.501 39.0754 10.6281 39.2025 10.7807L43.0418 15.4082C43.3469 15.7642 43.9572 15.9167 44.4657 16.0184L44.5928 16.0439C44.6691 16.0693 44.7708 16.1201 44.7708 16.1964V16.7304L44.6945 16.7558C44.6945 16.7558 43.3469 16.7304 42.635 16.7304C41.9994 16.7304 41.084 16.7558 41.084 16.7558L41.0586 16.7304V16.4252C41.0586 16.0947 41.0332 15.815 40.6772 15.4082L37.8549 11.8994ZM49.2513 6.55992C49.2513 6.05139 49.531 5.82257 50.3192 5.74629L50.8531 5.69543C50.9549 5.69543 51.0057 5.64459 51.0057 5.56831V5.03436L50.9803 4.98351C50.9803 4.98351 49.0225 5.03436 48.336 5.03436C47.5477 5.03436 45.5391 4.98351 45.5391 4.98351L45.5137 5.03436V5.59373C45.5137 5.67001 45.59 5.69543 45.6916 5.69543L46.2002 5.74629C46.9884 5.82257 47.2935 6.00055 47.2935 6.55992V15.0268C47.2935 15.5099 47.0392 15.9167 46.2002 15.993L45.6916 16.0439C45.59 16.0439 45.5137 16.0947 45.5137 16.1964V16.7304L45.5645 16.7812C45.5645 16.7812 47.5477 16.7304 48.2597 16.7304C49.0479 16.7304 50.9803 16.7812 50.9803 16.7812L51.0057 16.7304V16.1964C51.0057 16.0947 50.9294 16.0439 50.8531 16.0439L50.3192 15.993C49.5055 15.9167 49.2513 15.5862 49.2513 15.0268V6.55992ZM57.2624 5.72086C56.0419 5.72086 55.7368 5.94969 55.7368 6.61078V11.0349C56.2454 11.2383 56.881 11.2637 57.3895 11.2637C58.9151 11.2637 59.6524 10.3484 59.6524 8.39059C59.6524 6.20395 58.6608 5.72086 57.2624 5.72086ZM52.7365 15.9676C53.5247 15.8659 53.779 15.637 53.779 15.1539V6.61078C53.779 5.82256 53.4485 5.79713 52.2534 5.72086C52.1009 5.72086 52.0755 5.64459 52.0755 5.59373V5.00893L52.1263 4.98351C52.2184 4.98351 52.3758 4.98648 52.5719 4.99097L52.7247 4.99458L53.0535 5.00272L53.0546 5.00276L53.0569 5.00281C53.6312 5.01721 54.3169 5.03436 54.7452 5.03436C55.0758 5.03436 55.4722 5.02338 55.8961 5.01163L55.8985 5.01158C56.3869 4.99805 56.9118 4.98351 57.4149 4.98351C61.0254 4.98351 61.6865 6.76334 61.6865 8.08548C61.6865 9.61105 60.9491 12.0011 57.3387 12.0011C56.703 12.0011 56.1945 11.9503 55.7368 11.7468V15.1539C55.7368 15.7133 56.0419 15.8404 56.8556 15.9676L57.3641 16.0439C57.4658 16.0693 57.5421 16.0947 57.5421 16.1964V16.7304L57.5167 16.7812C57.5167 16.7812 55.4826 16.7304 54.6944 16.7304C53.9824 16.7304 52.0755 16.7812 52.0755 16.7812L52.05 16.7304V16.1964C52.05 16.0947 52.1009 16.0693 52.2026 16.0439L52.7365 15.9676ZM69.5515 16.7304C70.3142 16.7304 71.8144 16.7812 71.8144 16.7812L71.8652 16.7304L72.3738 13.8064L71.7381 13.7301C71.433 15.0522 70.7211 15.8659 69.4243 15.8659H67.0088C66.5512 15.8659 66.2715 15.3828 66.2715 14.8997V11.0095H68.1785C68.8395 11.0095 69.0684 11.2892 69.1701 11.7977L69.2972 12.3571C69.2972 12.4333 69.348 12.4842 69.4752 12.4842H69.9074L69.9583 12.4333C69.9413 12.2384 69.9187 12.0491 69.8961 11.8597C69.8509 11.4812 69.8057 11.1027 69.8057 10.6789C69.8057 10.2365 69.8592 9.74066 69.908 9.28824C69.9265 9.11662 69.9443 8.95125 69.9583 8.79741C69.9583 8.74657 69.9583 8.72115 69.9074 8.72115H69.4752C69.3735 8.72115 69.3226 8.77199 69.3226 8.84827L69.1701 9.38222C69.0684 9.89073 68.8904 10.1958 68.1785 10.1958H66.2715V6.50908C66.2715 6.07683 66.5257 5.89885 67.0088 5.89885H69.0429C70.6702 5.89885 71.1533 7.24643 71.433 8.18719L72.0687 8.08548C71.8906 7.11929 71.7127 6.12769 71.6872 5.03436L71.6364 4.98351C71.6364 4.98351 69.8311 5.03436 69.0684 5.03436H65.3307C64.568 5.03436 62.5847 4.98351 62.5847 4.98351L62.5593 5.03436V5.61916C62.5593 5.64458 62.5593 5.69543 62.7118 5.72086L63.2967 5.77171C64.0086 5.82257 64.3137 5.92427 64.3137 6.50908V14.8997C64.3137 15.4082 64.0849 15.9167 63.2967 15.993L62.7118 16.0439C62.5847 16.0439 62.5593 16.1201 62.5593 16.171V16.7304L62.5847 16.7812C62.5847 16.7812 64.3391 16.7304 65.1019 16.7304H69.5515ZM73.5155 16.7304V16.1964C73.5155 16.1201 73.5663 16.0439 73.668 16.0439L74.2528 15.993C75.0156 15.9167 75.2699 15.6879 75.2699 14.8997V6.50908C75.2699 5.86371 75.1002 5.84836 74.3115 5.77704L74.2528 5.77171L73.6934 5.72086C73.5918 5.72086 73.5155 5.67001 73.5155 5.59373V5.03436L73.5409 4.98351C73.5409 4.98351 75.7784 5.03436 76.236 5.03436C76.4587 5.03436 77.0486 5.02356 77.6846 5.01192H77.6855L77.6881 5.01187L77.6898 5.01183C78.4325 4.99823 79.2367 4.98351 79.5923 4.98351C83.8385 4.98351 85.9234 7.62782 85.9234 11.0095C85.9234 15.4591 82.7706 16.7812 79.9483 16.7812C78.6946 16.7812 77.8755 16.7619 77.2471 16.7471C76.8558 16.7378 76.5384 16.7304 76.236 16.7304C75.4733 16.7304 73.5409 16.7812 73.5409 16.7812L73.5155 16.7304ZM77.2277 6.50908V14.8997C77.2277 15.6116 77.4057 16.0439 79.338 16.0439C82.1349 16.0439 83.7113 15.0014 83.7113 11.4417C83.7113 8.79742 83.1265 5.72086 78.8549 5.72086C77.8633 5.72086 77.2277 5.87343 77.2277 6.50908ZM90.9406 6.55992C90.9406 6.05139 91.2202 5.82257 92.0085 5.74629L92.5424 5.69543C92.6441 5.69543 92.695 5.64459 92.695 5.56831V5.03436L92.6695 4.98351C92.6695 4.98351 90.7117 5.03436 90.0252 5.03436C89.237 5.03436 87.2284 4.98351 87.2284 4.98351L87.2029 5.03436V5.59373C87.2029 5.67001 87.2792 5.69543 87.3809 5.69543L87.8894 5.74629C88.6776 5.82257 88.9827 6.00055 88.9827 6.55992V15.0268C88.9827 15.5099 88.7285 15.9167 87.8894 15.993L87.3809 16.0439C87.2792 16.0439 87.2029 16.0947 87.2029 16.1964V16.7304L87.2538 16.7812C87.2538 16.7812 89.237 16.7304 89.949 16.7304C90.7372 16.7304 92.6695 16.7812 92.6695 16.7812L92.695 16.7304V16.1964C92.695 16.0947 92.6187 16.0439 92.5424 16.0439L92.0085 15.993C91.1948 15.9167 90.9406 15.5862 90.9406 15.0268V6.55992ZM97.0193 15.993C97.8075 15.9167 98.1126 15.6879 98.1126 15.1794V11.7468L94.909 6.48364C94.5784 5.94969 94.1716 5.79713 93.4342 5.72086C93.358 5.72086 93.2308 5.69543 93.2308 5.59373V5.03436L93.2817 4.98351C93.39 4.98351 93.8003 4.99489 94.232 5.00688L94.2364 5.00702C94.7154 5.02034 95.2198 5.03436 95.3666 5.03436C95.4937 5.03436 97.6295 5.00893 97.9347 4.98351L97.9601 5.00893V5.59373C97.9601 5.64459 97.9092 5.72086 97.8329 5.72086L97.2736 5.77171C96.6634 5.82257 96.765 6.05141 97.0193 6.45822L99.5873 10.6535H99.6382L102.003 6.45822C102.333 5.84799 102.333 5.82257 101.723 5.77171L101.138 5.72086C101.062 5.72086 101.037 5.64459 101.037 5.59373V5.00893L101.087 4.98351C101.231 4.98351 101.674 4.99683 102.106 5.00984C102.518 5.02225 102.921 5.03436 103.045 5.03436C103.223 5.03436 104.393 5.00893 104.774 4.98351L104.8 5.03436V5.59373C104.8 5.64459 104.8 5.69543 104.622 5.72086L104.189 5.77171C103.376 5.87341 103.249 6.02597 102.867 6.71248L100.07 11.6451V15.1794C100.07 15.7387 100.35 15.9167 101.138 15.993L101.672 16.0439C101.774 16.0439 101.85 16.1201 101.85 16.1964V16.7304L101.799 16.7812C101.799 16.7812 99.867 16.7304 99.0788 16.7304C98.3669 16.7304 96.3837 16.7812 96.3837 16.7812L96.3328 16.7304V16.1964C96.3328 16.1201 96.4091 16.0439 96.5108 16.0439L97.0193 15.993ZM51.2015 2.91599C50.4725 2.91599 49.9055 2.34898 49.9055 1.64697C49.9055 0.917984 50.4725 0.350983 51.2015 0.350983C51.9035 0.350983 52.4975 0.917984 52.4975 1.64697C52.4975 2.34898 51.9035 2.91599 51.2015 2.91599ZM29.4383 1.64697C29.4383 2.34898 30.0053 2.91599 30.7343 2.91599C31.4363 2.91599 32.0303 2.34898 32.0303 1.64697C32.0303 0.917984 31.4363 0.350983 30.7343 0.350983C30.0053 0.350983 29.4383 0.917984 29.4383 1.64697ZM95.3866 2.91599C94.6576 2.91599 94.0906 2.34898 94.0906 1.64697C94.0906 0.917984 94.6576 0.350983 95.3866 0.350983C96.0886 0.350983 96.6826 0.917984 96.6826 1.64697C96.6826 2.34898 96.0886 2.91599 95.3866 2.91599Z" fill="black"/>
</svg>

<svg xmlns="http://www.w3.org/2000/svg" width="120" height="18" fill="none"><path fill="#000" fill-rule="evenodd" d="M109.143 9.535c-.559 0-.737-.076-.636-.33l2.543-6.459h.051l2.466 6.789h-4.424Zm-2.822 5.187 1.474-3.687c.128-.33.28-.432.89-.432h5.289l1.551 4.297c.254.712-.102 1.017-1.068 1.093l-.712.05c-.127 0-.178.077-.178.204v.483l.026.051s2.491-.05 3.381-.05c.992 0 2.95.05 2.95.05l.076-.05v-.484c0-.127-.127-.203-.254-.203l-.28-.026c-1.017-.101-1.526-.483-1.881-1.474L112.372.763c-.203-.509-.33-.763-.686-.763-.382 0-.585.254-.865.915l-5.644 13.222c-.712 1.627-1.348 1.83-2.467 1.907-.127 0-.203.076-.203.203v.483l.051.051s1.627-.05 2.288-.05c.61 0 3.382.05 3.382.05l.051-.05v-.484a.2.2 0 0 0-.204-.203l-.737-.051c-.941-.076-1.271-.636-1.017-1.271ZM14.646 1.09c1.093.152.966.711.204 2.186L13.502 5.82l-.127-.127-1.246-2.568c-.686-1.45-.788-1.882.28-2.034.152-.153.152-.687 0-.84l-.656.02h-.006A43.71 43.71 0 0 1 8.335.268h-.024l-.32-.011L7.833.25c-.153.153-.127.687.025.84 1.094.152 1.297.508 2.136 2.313l2.136 4.552-2.822 5.771H9.18L4.527 3.124c-.636-1.45-.56-1.856 1.042-2.034.153-.153.153-.687 0-.84l-.906.022h-.006c-.677.016-1.203.03-1.91.03C2.07.301 1.652.29 1.095.274h-.004L.904.27.718.265.102.25c-.152.153-.127.687.026.84 1.345.117 1.485.454 2.108 1.945l.085.202.07.166 5.543 13.019c.152.38.33.584.585.584.28 0 .457-.203.61-.584l3.737-7.374 3.433 7.374c.127.38.33.584.585.584.28 0 .432-.203.61-.584l6-12.968.092-.202.033-.074c.467-1.046.848-1.901 2.393-2.088.152-.153.152-.687 0-.84l-.293.008-.551.015h-.003c-.56.016-.988.028-1.39.028-.386 0-.838-.01-1.442-.025h-.002L21.257.25c-.152.153-.152.687 0 .84 1.653.127 1.678.813 1.093 2.186l-4.83 10.45h-.128l-3.254-6.712 1.856-3.56c.635-1.17 1.195-2.161 2.517-2.364.152-.153.152-.687 0-.84h-.001c-.636.026-1.27.051-1.855.051-.384 0-.724-.01-1.178-.025h-.015L15.307.27a130.7 130.7 0 0 0-.66-.02c-.153.153-.153.687 0 .84Zm15.325 5.47c0-.509.28-.737 1.068-.814l.534-.05c.101 0 .152-.051.152-.128v-.534l-.025-.05s-1.958.05-2.644.05c-.789 0-2.797-.05-2.797-.05l-.026.05v.56c0 .076.077.101.178.101l.509.051c.788.077 1.093.255 1.093.814v8.467c0 .483-.254.89-1.093.966l-.509.05c-.101 0-.178.052-.178.153v.534l.051.051s1.983-.05 2.695-.05c.788 0 2.72.05 2.72.05l.026-.05v-.535c0-.101-.076-.152-.152-.152l-.534-.051c-.814-.076-1.068-.407-1.068-.966V6.56Zm7.884 5.34c-.381-.51-.788-.636-1.348-.636v3.763c0 .56.33.839 1.068.966l.28.05c.076.026.153.052.153.153v.534l-.026.051s-1.602-.05-2.365-.05c-.711 0-2.796.05-2.796.05l-.051-.05v-.535c0-.101.076-.152.178-.152l.508-.051c.763-.076 1.093-.483 1.093-.966V6.56c0-.56-.28-.712-1.093-.788l-.508-.051c-.102 0-.178-.026-.178-.102v-.585l.025-.05s2.085.05 2.873.05c.712 0 2.314-.05 2.314-.05l.026.05v.56c0 .076-.051.101-.153.127l-.28.05c-.788.153-1.068.28-1.068.789v3.84c.84 0 1.323-.433 2.441-1.628 1.017-1.119 1.806-2.06 1.806-2.543 0-.203-.23-.432-.738-.508-.102-.026-.152-.051-.152-.127v-.585l.025-.025s2.06.05 2.797.05c.66 0 1.78-.05 1.78-.05l.076.025v.585c0 .076-.076.127-.203.127h-.006c-.989.076-1.674.13-2.588 1.17L39.56 9.407c-.433.457-.585.737-.585.94 0 .153.101.28.229.433l3.839 4.627c.305.356.915.509 1.424.61l.127.026c.076.025.178.076.178.152v.534l-.077.026s-1.347-.026-2.059-.026c-.636 0-1.551.026-1.551.026l-.025-.026v-.305c0-.33-.026-.61-.382-1.017L37.855 11.9ZM49.25 6.56c0-.509.28-.737 1.068-.814l.534-.05c.102 0 .153-.051.153-.128v-.534l-.026-.05s-1.957.05-2.644.05c-.788 0-2.797-.05-2.797-.05l-.025.05v.56c0 .076.076.101.178.101l.508.051c.788.077 1.093.255 1.093.814v8.467c0 .483-.254.89-1.093.966l-.508.05c-.102 0-.178.052-.178.153v.534l.05.051s1.984-.05 2.696-.05c.788 0 2.72.05 2.72.05l.026-.05v-.535c0-.101-.077-.152-.153-.152l-.534-.051c-.814-.076-1.068-.407-1.068-.966V6.56Zm8.011-.84c-1.22 0-1.525.23-1.525.89v4.425c.508.203 1.144.229 1.652.229 1.526 0 2.263-.916 2.263-2.873 0-2.187-.991-2.67-2.39-2.67Zm-4.526 10.248c.789-.102 1.043-.331 1.043-.814V6.61c0-.788-.33-.814-1.526-.89-.152 0-.178-.076-.178-.127v-.585l.051-.025c.092 0 .25.002.446.007l.153.004.328.008h.004c.574.014 1.26.031 1.688.031.33 0 .727-.01 1.151-.022h.002a55.563 55.563 0 0 1 1.517-.028c3.61 0 4.272 1.78 4.272 3.101 0 1.526-.738 3.916-4.348 3.916-.636 0-1.145-.05-1.602-.254v3.407c0 .56.305.686 1.119.814l.508.076c.102.025.178.05.178.152v.534l-.025.051s-2.034-.05-2.823-.05c-.712 0-2.619.05-2.619.05l-.025-.05v-.535c0-.101.05-.127.153-.152l.533-.076Zm16.816.762c.762 0 2.262.051 2.262.051l.051-.05.509-2.925-.636-.076c-.305 1.322-1.017 2.136-2.314 2.136H67.01c-.458 0-.737-.483-.737-.966v-3.89h1.906c.662 0 .89.28.992.788l.127.56c0 .075.051.126.178.126h.432l.051-.05c-.017-.196-.04-.385-.062-.574a9.636 9.636 0 0 1-.09-1.181c0-.443.053-.938.102-1.39.019-.172.036-.338.05-.492 0-.05 0-.076-.05-.076h-.433c-.101 0-.152.051-.152.127l-.153.534c-.102.509-.28.814-.992.814h-1.906V6.509c0-.432.254-.61.737-.61h2.034c1.627 0 2.11 1.347 2.39 2.288l.636-.102c-.178-.966-.356-1.957-.382-3.05l-.05-.051s-1.806.05-2.569.05h-3.737c-.763 0-2.746-.05-2.746-.05l-.026.05v.585c0 .026 0 .076.153.102l.585.05c.712.052 1.017.153 1.017.738v8.39c0 .51-.23 1.018-1.017 1.094l-.585.05c-.127 0-.153.077-.153.128v.56l.026.05s1.754-.05 2.517-.05h4.45Zm3.963 0v-.534c0-.076.051-.152.153-.152l.585-.051c.763-.076 1.017-.305 1.017-1.093V6.51c0-.646-.17-.662-.959-.733l-.058-.005-.56-.051c-.101 0-.177-.051-.177-.127v-.56l.025-.05s2.237.05 2.695.05c.223 0 .813-.01 1.449-.022h.005a150.4 150.4 0 0 1 1.902-.028c4.246 0 6.331 2.644 6.331 6.025 0 4.45-3.152 5.772-5.975 5.772-1.253 0-2.072-.02-2.7-.034-.392-.01-.71-.017-1.012-.017-.763 0-2.695.051-2.695.051l-.025-.05Zm3.713-10.22v8.39c0 .712.178 1.144 2.11 1.144 2.797 0 4.373-1.043 4.373-4.602 0-2.645-.585-5.721-4.856-5.721-.992 0-1.627.152-1.627.788Zm13.713.05c0-.509.28-.737 1.067-.814l.534-.05c.102 0 .153-.051.153-.128v-.534l-.025-.05s-1.958.05-2.645.05c-.788 0-2.797-.05-2.797-.05l-.025.05v.56c0 .076.076.101.178.101l.508.051c.789.077 1.094.255 1.094.814v8.467c0 .483-.255.89-1.094.966l-.508.05c-.102 0-.178.052-.178.153v.534l.05.051s1.984-.05 2.696-.05c.788 0 2.72.05 2.72.05l.026-.05v-.535c0-.101-.076-.152-.153-.152l-.534-.051c-.813-.076-1.067-.407-1.067-.966V6.56Zm6.078 9.433c.788-.076 1.094-.305 1.094-.814v-3.432l-3.204-5.263c-.33-.534-.737-.687-1.475-.763-.076 0-.203-.026-.203-.127v-.56l.05-.05c.109 0 .52.01.951.023h.004c.48.013.984.027 1.13.027.128 0 2.263-.025 2.569-.05l.025.025v.585c0 .05-.05.127-.127.127l-.56.05c-.61.052-.508.28-.254.687l2.568 4.195h.051l2.365-4.195c.33-.61.33-.635-.28-.686l-.585-.051c-.076 0-.101-.076-.101-.127v-.585l.05-.025c.144 0 .587.013 1.019.026.412.012.815.024.939.024.178 0 1.348-.025 1.729-.05l.026.05v.56c0 .05 0 .101-.178.127l-.433.05c-.813.102-.94.255-1.322.941l-2.797 4.933v3.534c0 .56.28.738 1.068.814l.534.05c.102 0 .178.077.178.153v.534l-.051.051s-1.932-.05-2.72-.05c-.712 0-2.695.05-2.695.05l-.051-.05v-.535c0-.076.076-.152.178-.152l.508-.051ZM51.201 2.916a1.274 1.274 0 0 1-1.295-1.269A1.28 1.28 0 0 1 51.202.351c.702 0 1.296.567 1.296 1.296 0 .702-.594 1.269-1.296 1.269ZM29.439 1.647c0 .702.567 1.269 1.296 1.269.702 0 1.296-.567 1.296-1.269 0-.729-.594-1.296-1.296-1.296a1.28 1.28 0 0 0-1.296 1.296Zm65.949 1.269a1.274 1.274 0 0 1-1.296-1.269A1.28 1.28 0 0 1 95.387.351c.702 0 1.296.567 1.296 1.296 0 .702-.594 1.269-1.296 1.269Z" clip-rule="evenodd"/></svg>
